X:6
T:Gillan's Reel
R:reel
C:Peter Milne
D:Joe Cormier, The Dances Down Home
Z:Paul Stewart Cranford (P.S.C.), <http://www.cranfordpub.com>
L:1/8
Q:333
M:C|
K:A
A2 cA B2 dB|c2 ec dBGB|A2 ce fgaf|edcB AGFE|
A2 cA B2 dB|c2 ec dBGB|A2 ce fgaf|1edcB AEFG:|2edcB Aefg||
|:a2 fa g2 eg|fgaf edcA|a2 fa gaba|gfe^d e2 fg|
agfa gfeg|fgaf edcB|A/A/A ce fgaf|1edcB Aefg:|2edcB AEFG|]
